X: 1
T: Planxty Nick Taverner
M: 3/4
L: 1/8
R: waltz
K: Gmaj
|:d2 g2 zB|c2 A3 z|f2 a2 zf|g2 B3 z|
GDGBAG|AEAcBA|BGDGFA|1 G6  :|2 G2 GA Bc||
|:d2 gf ed|c2 ag fe|d2 d'2 d'2|d'4 b2|
f2 b2 f2|gf e2 e2|e2 c'2 e2|e4  d2|
g2 B2 g2|f2 d2 B2|ef gf ed|ed cB AG|
ED EG FA|GF GB Ac|BG DG FA|1G2 GA Bc:|2 G6||
